Newaita-dark/apps/64/preferences-system-brightness-lock.svg

<svg height="64" viewBox="0 0 64 64" width="64" xmlns="http://www.w3.org/2000/svg" xmlns:xlink="http://www.w3.org/1999/xlink"><linearGradient id="a"><stop offset="0" stop-opacity=".313726"/><stop offset=".222222" stop-opacity=".27451"/><stop offset="1" stop-opacity="0"/></linearGradient><radialGradient id="b" cx="450.908936" cy="189.579361" gradientTransform="matrix(.00000035 -.156265 -.281277 -.0000002 85.077175 127.190659)" gradientUnits="userSpaceOnUse" r="21.166656" xlink:href="#a"/><radialGradient id="c" cx="450.908936" cy="189.579361" gradientTransform="matrix(-.00000035 .156265 .281277 .0000002 -21.571108 -15.054964)" gradientUnits="userSpaceOnUse" r="21.166656" xlink:href="#a"/><radialGradient id="d" cx="450.908936" cy="189.579361" gradientTransform="matrix(-.00000035 -.156265 .281277 -.0000002 -21.571108 127.190659)" gradientUnits="userSpaceOnUse" r="21.166656" xlink:href="#a"/><radialGradient id="e" cx="450.908936" cy="189.579361" gradientTransform="matrix(.00000035 .156265 -.281277 .0000002 85.077171 -15.054965)" gradientUnits="userSpaceOnUse" r="21.166656" xlink:href="#a"/><linearGradient id="f" gradientTransform="matrix(.00381716 0 0 .125012 30.778424 26.877567)" gradientUnits="userSpaceOnUse" x1="255.323059" x2="255.323044" y1="233.5" y2="254.666656"><stop offset="0" stop-opacity=".27451"/><stop offset="1" stop-opacity="0"/></linearGradient><linearGradient id="g"><stop offset="0" stop-color="#78909c"/><stop offset="1" stop-color="#90a4ae"/></linearGradient><linearGradient id="h" gradientUnits="userSpaceOnUse" x1="31.753056" x2="31.753056" xlink:href="#g" y1="56.06789790428" y2="5.792224912"/><linearGradient id="i" gradientUnits="userSpaceOnUse" x1="37.04522400013" x2="37.04522400013" xlink:href="#g" y1="49.45264899994" y2="12.407427"/><linearGradient id="j" gradientUnits="userSpaceOnUse" x1="400" x2="960" y1="935.117188" y2="935.117188"><stop offset="0" stop-color="#eee"/><stop offset="1" stop-color="#e0e0e0"/></linearGradient><path d="m32.414062 56.066406h5.292969v-2.644531h-5.292969zm0 0" fill="url(#b)"/><path d="m31.089844 56.066406h-5.289063v2.648438h5.289063zm0 0" fill="url(#c)"/><path d="m31.089844 56.066406h-5.289063v-2.644531h5.289063zm0 0" fill="url(#d)"/><path d="m32.414062 56.066406h5.292969v2.648438h-5.292969zm0 0" fill="url(#e)"/><path d="m31.089844 55.40625h1.324218v3.308594h-1.324218zm0 0" fill="url(#f)"/><path d="m31.753906 5.828125c-.675781 0-1.355468.257813-1.871094.777344l-5.800781 5.800781h-8.207031c-1.464844 0-2.644531 1.179688-2.644531 2.648438v8.203124l-5.800781 5.800782c-1.035157 1.035156-1.035157 2.707031 0 3.742187l5.800781 5.800781v8.203126c0 1.46875 1.179687 2.648437 2.644531 2.648437h8.207031l5.800781 5.800781c1.035157 1.035156 2.703126 1.035156 3.742188 0l5.800781-5.800781h8.203125c1.464844 0 2.648438-1.179687 2.648438-2.648437v-8.203126l5.800781-5.800781c1.035156-1.035156 1.035156-2.707031 0-3.742187l-5.800781-5.800782v-8.203124c0-1.46875-1.183594-2.648438-2.648438-2.648438h-8.203125l-5.800781-5.800781c-.519531-.519531-1.195312-.777344-1.871094-.777344zm0 0" fill="url(#h)"/><path d="m31.753906 12.40625c10.230469 0 18.523438 8.292969 18.523438 18.523438 0 10.230468-8.292969 18.523437-18.523438 18.523437-10.230468 0-18.523437-8.292969-18.523437-18.523437 0-10.230469 8.292969-18.523438 18.523437-18.523438zm0 0" fill="url(#i)"/><path d="m960.026483 375.082311c-310.24598 0-560.02529 249.77931-560.02529 560.02529s249.77931 560.02529 560.02529 560.02529zm0 0" fill="url(#j)" stroke="#212121" stroke-linecap="round" stroke-linejoin="round" stroke-width="11.338583" transform="scale(.0330761)"/><path d="m31.753906 5.828125c-.675781 0-1.355468.257813-1.871094.777344l-5.800781 5.800781h-8.207031c-1.464844 0-2.644531 1.179688-2.644531 2.648438v.625c0-1.46875 1.179687-2.648438 2.644531-2.648438h8.207031l5.800781-5.800781c.515626-.519531 1.195313-.777344 1.871094-.777344.675782 0 1.351563.257813 1.871094.777344l5.800781 5.800781h8.203125c1.464844 0 2.648438 1.179688 2.648438 2.648438v-.625c0-1.46875-1.183594-2.648438-2.648438-2.648438h-8.203125l-5.800781-5.800781c-.519531-.519531-1.195312-.777344-1.871094-.777344zm-18.523437 17.429687-5.800781 5.800782c-.597657.597656-.851563 1.40625-.757813 2.183594.066406-.570313.320313-1.121094.757813-1.558594l5.800781-5.800782zm37.046875 0v.625l5.800781 5.800782c.4375.4375.6875.988281.757813 1.558594.089843-.777344-.160157-1.585938-.757813-2.183594zm0 0" fill="#fff" fill-opacity=".392157"/><path d="m31.753906 56.03125c-.675781 0-1.355468-.257812-1.871094-.777344l-5.800781-5.800781h-8.207031c-1.464844 0-2.644531-1.179687-2.644531-2.648437v-.625c0 1.46875 1.179687 2.648437 2.644531 2.648437h8.207031l5.800781 5.800781c.515626.519532 1.195313.777344 1.871094.777344.675782 0 1.351563-.257812 1.871094-.777344l5.800781-5.800781h8.203125c1.464844 0 2.648438-1.179687 2.648438-2.648437v.625c0 1.46875-1.183594 2.648437-2.648438 2.648437h-8.203125l-5.800781 5.800781c-.519531.519532-1.195312.777344-1.871094.777344zm-18.523437-17.429688-5.800781-5.800781c-.597657-.597656-.851563-1.40625-.757813-2.183593.066406.570312.320313 1.121093.757813 1.558593l5.800781 5.800781zm37.046875 0v-.625l5.800781-5.800781c.4375-.4375.6875-.988281.757813-1.558593.089843.777343-.160157 1.585937-.757813 2.183593zm0 0" fill-opacity=".235294"/><path d="m31.753906 5.640625c-.726562 0-1.449218.277344-2.003906.832031l-5.746094 5.746094h-8.128906c-1.566406 0-2.832031 1.269531-2.832031 2.835938v8.125l-5.746094 5.746093c-1.109375 1.109375-1.109375 2.898438 0 4.007813l5.746094 5.746094v8.125c0 1.570312 1.265625 2.835937 2.832031 2.835937h8.128906l5.746094 5.746094c1.105469 1.109375 2.898438 1.109375 4.007812 0l5.746094-5.746094h8.125c1.566406 0 2.835938-1.265625 2.835938-2.835937v-8.125l5.746094-5.746094c1.105468-1.109375 1.105468-2.898438 0-4.007813l-5.746094-5.746093v-8.125c0-1.566407-1.269532-2.835938-2.835938-2.835938h-8.125l-5.746094-5.746094c-.554687-.554687-1.28125-.832031-2.003906-.832031zm0 .375c.628906 0 1.253906.242187 1.738282.722656l5.800781 5.800781c.035156.035157.082031.054688.132812.054688h8.203125c1.367188 0 2.460938 1.09375 2.460938 2.460938v8.203124c0 .050782.019531.097657.054687.132813l5.800781 5.800781c.964844.964844.964844 2.511719 0 3.476563l-5.800781 5.800781c-.035156.035156-.054687.082031-.054687.132812v8.203126c0 1.367187-1.09375 2.460937-2.460938 2.460937h-8.203125c-.050781 0-.097656.019531-.132812.054687l-5.800781 5.800782c-.964844.964844-2.511719.964844-3.476563 0l-5.800781-5.800782c-.035156-.035156-.085938-.054687-.132813-.054687h-8.207031c-1.363281 0-2.457031-1.09375-2.457031-2.460937v-8.203126c0-.050781-.019531-.097656-.054688-.132812l-5.800781-5.800781c-.964844-.964844-.964844-2.511719 0-3.476563l5.800781-5.800781c.035157-.035156.054688-.082031.054688-.132813v-8.203124c0-1.367188 1.09375-2.460938 2.457031-2.460938h8.207031c.046875 0 .097657-.019531.132813-.054688l5.800781-5.800781c.480469-.480469 1.109375-.722656 1.738281-.722656zm0 0" fill="#212121" fill-opacity=".963235"/><path d="m31.753906 12.40625c-10.261718 0-18.523437 8.261719-18.523437 18.523438 0 .109374 0 .222656.003906.332031.175781-10.109375 8.367187-18.191407 18.519531-18.191407 10.148438 0 18.34375 8.082032 18.519532 18.191407 0-.109375.003906-.222657.003906-.332031 0-10.261719-8.261719-18.523438-18.523438-18.523438zm0 0" fill="#fff" fill-opacity=".392157"/><path d="m31.753906 50.113281c-10.261718 0-18.523437-8.261719-18.523437-18.523437 0-.109375 0-.21875.003906-.328125.175781 10.105469 8.367187 18.191406 18.519531 18.191406 10.148438 0 18.34375-8.085937 18.519532-18.191406 0 .109375.003906.21875.003906.328125 0 10.261718-8.261719 18.523437-18.523438 18.523437zm0 0" fill-opacity=".235294"/><path d="m254.006994-115.759477c81.835935 0 148.17335 66.337415 148.17335 148.17335s-66.337415 148.17335-148.17335 148.17335c-81.835936 0-148.173351-66.337415-148.173351-148.17335s66.337415-148.17335 148.173351-148.17335zm0 0" fill="none" stroke="#212121" stroke-linecap="round" stroke-linejoin="round" stroke-width="2.546624" transform="matrix(.125012 0 0 .125012 0 26.877566)"/></svg>

<?xml version="1.0" encoding="UTF-8"?>
<svg xmlns="http://www.w3.org/2000/svg" xmlns:xlink="http://www.w3.org/1999/xlink" width="64px" height="64px" viewBox="0 0 64 64" version="1.1">
<defs>
<radialGradient id="radial0" gradientUnits="userSpaceOnUse" cx="450.908936" cy="189.579361" fx="450.908936" fy="189.579361" r="21.166656" gradientTransform="matrix(0.000000348341,-0.156265,-0.281277,-0.000000203077,85.077175,127.190659)">
<stop offset="0" style="stop-color:rgb(0%,0%,0%);stop-opacity:0.313726;"/>
<stop offset="0.222222" style="stop-color:rgb(0%,0%,0%);stop-opacity:0.27451;"/>
<stop offset="1" style="stop-color:rgb(0%,0%,0%);stop-opacity:0;"/>
</radialGradient>
<radialGradient id="radial1" gradientUnits="userSpaceOnUse" cx="450.908936" cy="189.579361" fx="450.908936" fy="189.579361" r="21.166656" gradientTransform="matrix(-0.000000348341,0.156265,0.281277,0.000000203077,-21.571108,-15.054964)">
<stop offset="0" style="stop-color:rgb(0%,0%,0%);stop-opacity:0.313726;"/>
<stop offset="0.222222" style="stop-color:rgb(0%,0%,0%);stop-opacity:0.27451;"/>
<stop offset="1" style="stop-color:rgb(0%,0%,0%);stop-opacity:0;"/>
</radialGradient>
<radialGradient id="radial2" gradientUnits="userSpaceOnUse" cx="450.908936" cy="189.579361" fx="450.908936" fy="189.579361" r="21.166656" gradientTransform="matrix(-0.000000348341,-0.156265,0.281277,-0.000000203077,-21.571108,127.190659)">
<stop offset="0" style="stop-color:rgb(0%,0%,0%);stop-opacity:0.313726;"/>
<stop offset="0.222222" style="stop-color:rgb(0%,0%,0%);stop-opacity:0.27451;"/>
<stop offset="1" style="stop-color:rgb(0%,0%,0%);stop-opacity:0;"/>
</radialGradient>
<radialGradient id="radial3" gradientUnits="userSpaceOnUse" cx="450.908936" cy="189.579361" fx="450.908936" fy="189.579361" r="21.166656" gradientTransform="matrix(0.000000348341,0.156265,-0.281277,0.000000203077,85.077171,-15.054965)">
<stop offset="0" style="stop-color:rgb(0%,0%,0%);stop-opacity:0.313726;"/>
<stop offset="0.222222" style="stop-color:rgb(0%,0%,0%);stop-opacity:0.27451;"/>
<stop offset="1" style="stop-color:rgb(0%,0%,0%);stop-opacity:0;"/>
</radialGradient>
<linearGradient id="linear0" gradientUnits="userSpaceOnUse" x1="255.323059" y1="233.5" x2="255.323044" y2="254.666656" gradientTransform="matrix(0.00381716,0,0,0.125012,30.778424,26.877567)">
<stop offset="0" style="stop-color:rgb(0%,0%,0%);stop-opacity:0.27451;"/>
<stop offset="1" style="stop-color:rgb(0%,0%,0%);stop-opacity:0;"/>
</linearGradient>
<linearGradient id="linear1" gradientUnits="userSpaceOnUse" x1="960" y1="1695.118164" x2="960" y2="175.118134" gradientTransform="matrix(0.0330761,0,0,0.0330761,0,0)">
<stop offset="0" style="stop-color:rgb(47.058824%,56.470591%,61.176473%);stop-opacity:1;"/>
<stop offset="1" style="stop-color:rgb(56.470591%,64.313728%,68.235296%);stop-opacity:1;"/>
</linearGradient>
<linearGradient id="linear2" gradientUnits="userSpaceOnUse" x1="296.333344" y1="180.583328" x2="296.333344" y2="-115.75" gradientTransform="matrix(0.125012,0,0,0.125012,0,26.877566)">
<stop offset="0" style="stop-color:rgb(47.058824%,56.470591%,61.176473%);stop-opacity:1;"/>
<stop offset="1" style="stop-color:rgb(56.470591%,64.313728%,68.235296%);stop-opacity:1;"/>
</linearGradient>
<linearGradient id="linear3" gradientUnits="userSpaceOnUse" x1="400" y1="935.117188" x2="960" y2="935.117188" gradientTransform="matrix(1,0,0,1,0,0)">
<stop offset="0" style="stop-color:rgb(93.333334%,93.333334%,93.333334%);stop-opacity:1;"/>
<stop offset="1" style="stop-color:rgb(87.843138%,87.843138%,87.843138%);stop-opacity:1;"/>
</linearGradient>
</defs>
<g id="surface1">
<path style=" stroke:none;fill-rule:nonzero;fill:url(#radial0);" d="M 32.414062 56.066406 L 37.707031 56.066406 L 37.707031 53.421875 L 32.414062 53.421875 Z M 32.414062 56.066406 "/>
<path style=" stroke:none;fill-rule:nonzero;fill:url(#radial1);" d="M 31.089844 56.066406 L 25.800781 56.066406 L 25.800781 58.714844 L 31.089844 58.714844 Z M 31.089844 56.066406 "/>
<path style=" stroke:none;fill-rule:nonzero;fill:url(#radial2);" d="M 31.089844 56.066406 L 25.800781 56.066406 L 25.800781 53.421875 L 31.089844 53.421875 Z M 31.089844 56.066406 "/>
<path style=" stroke:none;fill-rule:nonzero;fill:url(#radial3);" d="M 32.414062 56.066406 L 37.707031 56.066406 L 37.707031 58.714844 L 32.414062 58.714844 Z M 32.414062 56.066406 "/>
<path style=" stroke:none;fill-rule:nonzero;fill:url(#linear0);" d="M 31.089844 55.40625 L 32.414062 55.40625 L 32.414062 58.714844 L 31.089844 58.714844 Z M 31.089844 55.40625 "/>
<path style=" stroke:none;fill-rule:nonzero;fill:url(#linear1);" d="M 31.753906 5.828125 C 31.078125 5.828125 30.398438 6.085938 29.882812 6.605469 L 24.082031 12.40625 L 15.875 12.40625 C 14.410156 12.40625 13.230469 13.585938 13.230469 15.054688 L 13.230469 23.257812 L 7.429688 29.058594 C 6.394531 30.09375 6.394531 31.765625 7.429688 32.800781 L 13.230469 38.601562 L 13.230469 46.804688 C 13.230469 48.273438 14.410156 49.453125 15.875 49.453125 L 24.082031 49.453125 L 29.882812 55.253906 C 30.917969 56.289062 32.585938 56.289062 33.625 55.253906 L 39.425781 49.453125 L 47.628906 49.453125 C 49.09375 49.453125 50.277344 48.273438 50.277344 46.804688 L 50.277344 38.601562 L 56.078125 32.800781 C 57.113281 31.765625 57.113281 30.09375 56.078125 29.058594 L 50.277344 23.257812 L 50.277344 15.054688 C 50.277344 13.585938 49.09375 12.40625 47.628906 12.40625 L 39.425781 12.40625 L 33.625 6.605469 C 33.105469 6.085938 32.429688 5.828125 31.753906 5.828125 Z M 31.753906 5.828125 "/>
<path style=" stroke:none;fill-rule:nonzero;fill:url(#linear2);" d="M 31.753906 12.40625 C 41.984375 12.40625 50.277344 20.699219 50.277344 30.929688 C 50.277344 41.160156 41.984375 49.453125 31.753906 49.453125 C 21.523438 49.453125 13.230469 41.160156 13.230469 30.929688 C 13.230469 20.699219 21.523438 12.40625 31.753906 12.40625 Z M 31.753906 12.40625 "/>
<path style="fill-rule:nonzero;fill:url(#linear3);stroke-width:11.338583;stroke-linecap:round;stroke-linejoin:round;stroke:rgb(12.941177%,12.941177%,12.941177%);stroke-opacity:1;stroke-miterlimit:4;" d="M 960.026483 375.082311 C 649.780503 375.082311 400.001193 624.861621 400.001193 935.107601 C 400.001193 1245.353581 649.780503 1495.132891 960.026483 1495.132891 Z M 960.026483 375.082311 " transform="matrix(0.0330761,0,0,0.0330761,0,0)"/>
<path style=" stroke:none;fill-rule:nonzero;fill:rgb(100%,100%,100%);fill-opacity:0.392157;" d="M 31.753906 5.828125 C 31.078125 5.828125 30.398438 6.085938 29.882812 6.605469 L 24.082031 12.40625 L 15.875 12.40625 C 14.410156 12.40625 13.230469 13.585938 13.230469 15.054688 L 13.230469 15.679688 C 13.230469 14.210938 14.410156 13.03125 15.875 13.03125 L 24.082031 13.03125 L 29.882812 7.230469 C 30.398438 6.710938 31.078125 6.453125 31.753906 6.453125 C 32.429688 6.453125 33.105469 6.710938 33.625 7.230469 L 39.425781 13.03125 L 47.628906 13.03125 C 49.09375 13.03125 50.277344 14.210938 50.277344 15.679688 L 50.277344 15.054688 C 50.277344 13.585938 49.09375 12.40625 47.628906 12.40625 L 39.425781 12.40625 L 33.625 6.605469 C 33.105469 6.085938 32.429688 5.828125 31.753906 5.828125 Z M 13.230469 23.257812 L 7.429688 29.058594 C 6.832031 29.65625 6.578125 30.464844 6.671875 31.242188 C 6.738281 30.671875 6.992188 30.121094 7.429688 29.683594 L 13.230469 23.882812 Z M 50.277344 23.257812 L 50.277344 23.882812 L 56.078125 29.683594 C 56.515625 30.121094 56.765625 30.671875 56.835938 31.242188 C 56.925781 30.464844 56.675781 29.65625 56.078125 29.058594 Z M 50.277344 23.257812 "/>
<path style=" stroke:none;fill-rule:nonzero;fill:rgb(0%,0%,0%);fill-opacity:0.235294;" d="M 31.753906 56.03125 C 31.078125 56.03125 30.398438 55.773438 29.882812 55.253906 L 24.082031 49.453125 L 15.875 49.453125 C 14.410156 49.453125 13.230469 48.273438 13.230469 46.804688 L 13.230469 46.179688 C 13.230469 47.648438 14.410156 48.828125 15.875 48.828125 L 24.082031 48.828125 L 29.882812 54.628906 C 30.398438 55.148438 31.078125 55.40625 31.753906 55.40625 C 32.429688 55.40625 33.105469 55.148438 33.625 54.628906 L 39.425781 48.828125 L 47.628906 48.828125 C 49.09375 48.828125 50.277344 47.648438 50.277344 46.179688 L 50.277344 46.804688 C 50.277344 48.273438 49.09375 49.453125 47.628906 49.453125 L 39.425781 49.453125 L 33.625 55.253906 C 33.105469 55.773438 32.429688 56.03125 31.753906 56.03125 Z M 13.230469 38.601562 L 7.429688 32.800781 C 6.832031 32.203125 6.578125 31.394531 6.671875 30.617188 C 6.738281 31.1875 6.992188 31.738281 7.429688 32.175781 L 13.230469 37.976562 Z M 50.277344 38.601562 L 50.277344 37.976562 L 56.078125 32.175781 C 56.515625 31.738281 56.765625 31.1875 56.835938 30.617188 C 56.925781 31.394531 56.675781 32.203125 56.078125 32.800781 Z M 50.277344 38.601562 "/>
<path style=" stroke:none;fill-rule:nonzero;fill:rgb(12.941177%,12.941177%,12.941177%);fill-opacity:0.963235;" d="M 31.753906 5.640625 C 31.027344 5.640625 30.304688 5.917969 29.75 6.472656 L 24.003906 12.21875 L 15.875 12.21875 C 14.308594 12.21875 13.042969 13.488281 13.042969 15.054688 L 13.042969 23.179688 L 7.296875 28.925781 C 6.1875 30.035156 6.1875 31.824219 7.296875 32.933594 L 13.042969 38.679688 L 13.042969 46.804688 C 13.042969 48.375 14.308594 49.640625 15.875 49.640625 L 24.003906 49.640625 L 29.75 55.386719 C 30.855469 56.496094 32.648438 56.496094 33.757812 55.386719 L 39.503906 49.640625 L 47.628906 49.640625 C 49.195312 49.640625 50.464844 48.375 50.464844 46.804688 L 50.464844 38.679688 L 56.210938 32.933594 C 57.316406 31.824219 57.316406 30.035156 56.210938 28.925781 L 50.464844 23.179688 L 50.464844 15.054688 C 50.464844 13.488281 49.195312 12.21875 47.628906 12.21875 L 39.503906 12.21875 L 33.757812 6.472656 C 33.203125 5.917969 32.476562 5.640625 31.753906 5.640625 Z M 31.753906 6.015625 C 32.382812 6.015625 33.007812 6.257812 33.492188 6.738281 L 39.292969 12.539062 C 39.328125 12.574219 39.375 12.59375 39.425781 12.59375 L 47.628906 12.59375 C 48.996094 12.59375 50.089844 13.6875 50.089844 15.054688 L 50.089844 23.257812 C 50.089844 23.308594 50.109375 23.355469 50.144531 23.390625 L 55.945312 29.191406 C 56.910156 30.15625 56.910156 31.703125 55.945312 32.667969 L 50.144531 38.46875 C 50.109375 38.503906 50.089844 38.550781 50.089844 38.601562 L 50.089844 46.804688 C 50.089844 48.171875 48.996094 49.265625 47.628906 49.265625 L 39.425781 49.265625 C 39.375 49.265625 39.328125 49.285156 39.292969 49.320312 L 33.492188 55.121094 C 32.527344 56.085938 30.980469 56.085938 30.015625 55.121094 L 24.214844 49.320312 C 24.179688 49.285156 24.128906 49.265625 24.082031 49.265625 L 15.875 49.265625 C 14.511719 49.265625 13.417969 48.171875 13.417969 46.804688 L 13.417969 38.601562 C 13.417969 38.550781 13.398438 38.503906 13.363281 38.46875 L 7.5625 32.667969 C 6.597656 31.703125 6.597656 30.15625 7.5625 29.191406 L 13.363281 23.390625 C 13.398438 23.355469 13.417969 23.308594 13.417969 23.257812 L 13.417969 15.054688 C 13.417969 13.6875 14.511719 12.59375 15.875 12.59375 L 24.082031 12.59375 C 24.128906 12.59375 24.179688 12.574219 24.214844 12.539062 L 30.015625 6.738281 C 30.496094 6.257812 31.125 6.015625 31.753906 6.015625 Z M 31.753906 6.015625 "/>
<path style=" stroke:none;fill-rule:nonzero;fill:rgb(100%,100%,100%);fill-opacity:0.392157;" d="M 31.753906 12.40625 C 21.492188 12.40625 13.230469 20.667969 13.230469 30.929688 C 13.230469 31.039062 13.230469 31.152344 13.234375 31.261719 C 13.410156 21.152344 21.601562 13.070312 31.753906 13.070312 C 41.902344 13.070312 50.097656 21.152344 50.273438 31.261719 C 50.273438 31.152344 50.277344 31.039062 50.277344 30.929688 C 50.277344 20.667969 42.015625 12.40625 31.753906 12.40625 Z M 31.753906 12.40625 "/>
<path style=" stroke:none;fill-rule:nonzero;fill:rgb(0%,0%,0%);fill-opacity:0.235294;" d="M 31.753906 50.113281 C 21.492188 50.113281 13.230469 41.851562 13.230469 31.589844 C 13.230469 31.480469 13.230469 31.371094 13.234375 31.261719 C 13.410156 41.367188 21.601562 49.453125 31.753906 49.453125 C 41.902344 49.453125 50.097656 41.367188 50.273438 31.261719 C 50.273438 31.371094 50.277344 31.480469 50.277344 31.589844 C 50.277344 41.851562 42.015625 50.113281 31.753906 50.113281 Z M 31.753906 50.113281 "/>
<path style="fill:none;stroke-width:2.546624;stroke-linecap:round;stroke-linejoin:round;stroke:rgb(12.941177%,12.941177%,12.941177%);stroke-opacity:1;stroke-miterlimit:4;" d="M 254.006994 -115.759477 C 335.842929 -115.759477 402.180344 -49.422062 402.180344 32.413873 C 402.180344 114.249808 335.842929 180.587223 254.006994 180.587223 C 172.171058 180.587223 105.833643 114.249808 105.833643 32.413873 C 105.833643 -49.422062 172.171058 -115.759477 254.006994 -115.759477 Z M 254.006994 -115.759477 " transform="matrix(0.125012,0,0,0.125012,0,26.877566)"/>
</g>
</svg>
